static/logos/hotjar-glyph-color.svg

<svg width="50" height="56" viewBox="0 0 50 56" fill="none" xmlns="http://www.w3.org/2000/svg">
<path d="M19.6476 21.9298C25.8359 18.4919 34.3112 13.7824 34.3112 0.0761108H24.0486C24.0486 7.74485 20.3151 9.81897 14.6636 12.9588C8.47538 16.3979 0 21.1054 0 34.8129H10.2626C10.2626 27.1438 13.9961 25.0696 19.6476 21.9298Z" fill="#FF3C00"/>
<path d="M37.408 18.7802C37.408 26.4493 33.6745 28.5234 28.023 31.6627C21.8364 35.1006 13.3594 39.8094 13.3594 53.5168H23.6216C23.6216 45.8477 27.355 43.7735 33.0065 40.6338C39.1948 37.1959 47.6698 32.4877 47.6698 18.7802H37.408Z" fill="#FF3C00"/>
</svg>

<svg xmlns="http://www.w3.org/2000/svg" width="57.143" height="64" fill="none" viewBox="0 0 50 56"><path fill="#FF3C00" d="M19.648 21.93C25.836 18.492 34.31 13.782 34.31.076H24.05c0 7.669-3.734 9.743-9.385 12.883C8.475 16.398 0 21.105 0 34.813h10.263c0-7.67 3.733-9.743 9.385-12.883ZM37.408 18.78c0 7.67-3.733 9.743-9.385 12.883-6.187 3.438-14.664 8.146-14.664 21.854h10.263c0-7.67 3.733-9.744 9.385-12.883 6.188-3.438 14.663-8.146 14.663-21.854H37.408Z"/></svg>
